!!!!SEGMENT: pl-wnifc--13846--001-105_anonim--piesni-polskie-i-ruskie-ludu-galicyjskiego-105-ctery-lata-wierniem-sluzyl.krn
!!!kernsource:
!!!cenid: 18xx:3327
!!!COM: Anonim
!!!COM-rismID: pe30004985
!!!CDT:
!!!CNT:
!!!GTL: Pieśni polskie i ruskie ludu galicyjskiego
!!!OTL: 105. Ctéry lata wierniem słuzył
!!!OMV: 105
!!!PDT: 1833
!!!AGN:
!!!SMS-siglum: PL-Wnifc
!!!SMS-shelfmark: 13846
!!!SMS-shelfwork: 001-105 G
!!!NIFC-rismSourceID: 1001036701
!!!NIFC-rismChildID: 1001039222
!!!NIFC-islandoraID: nifc:210326
!!!URL-pdf-islandora: https://repozytorium.nifc.pl/islandora/object/nifc%3A210326/datastream/PDF/view
!!!URL-scan:
!!!IIIF:
!!!ONB-nifc:
!!!OMD: Allegretto un poco lentarello.
!!!AIN: 1 piano 1 vox
!!!key: d
**kern	**kern	**dynam	**kern	**text
*part2	*part2	*part2	*part1	*part1
*staff3	*staff2	*	*staff1	*staff1
*I"FORTEPIAN.	*I"FORTEPIAN.	*	*I"GŁOS.	*
*Ipiano	*Ipiano	*	*Ivox	*
*ICklav	*ICklav	*	*ICvox	*
*IGacmp	*IGacmp	*	*IGsolo	*
*clefF4	*clefG2	*	*clefG2	*
*k[b-]	*k[b-]	*	*k[b-]	*
*d:	*d:	*	*d:	*
*M3/8	*M3/8	*	*M3/8	*
=1	=1	=1	=1	=1
*tremolo	*	*	*	*
!	!LO:TX:a:t=E.124.:rj	!	!	!
(>16F\ 16D\LL	16dd\LL	.	16dd\	Cté-
16A\	16ee\JJ	.	16ee\	-ry
16F\ 16D\	8ff\L	.	8ff\	la-
16A\	.	.	.	.
16F\ 16D\	8ff\J	.	8ff\	-ta
16A\JJ)	.	.	.	.
=2	=2	=2	=2	=2
(>16F\ 16D\LL	16ff\LL	.	16ff\	wier-
16A\	16ee\JJ	.	16ee\	-niem
16F\ 16D\	8dd\L	.	8dd\	słu-
16A\	.	.	.	.
16F\ 16D\	8ff\J	.	8ff\	-zył
16A\JJ)	.	.	.	.
!!LO:LB:g=original
=3	=3	=3	=3	=3
(>16G\ 16D\LL	16ee\|LL	.	16ee\	go-
16A\	16ee\|JJ	.	16ee\	-spo-
16G\ 16D\	16cc#X\^>LL	.	(>16cc#X\LL	-da-
16A\	16a\JJ	.	16a\JJ)	.
16G\ 16D\	8cc#\|	.	8cc#\	-zo-
16A\JJ)	.	.	.	.
=4	=4	=4	=4	=4
(>16F\ 16D\LL	4.dd\ 4.a\^<	.	4.dd\	-wi
16A\	.	.	.	.
16F\ 16D\	.	.	.	.
16A\	.	.	.	.
16F\ 16D\	.	.	.	.
16A\JJ)	.	.	.	.
=5	=5	=5	=5	=5
(>16G\ 16D\LL	8ee\|	.	8ee\	ma-
16A\	.	.	.	.
16G\ 16D\	8.a/^L	.	(<8.a/L	-tu-
16A\	.	.	.	.
16G\ 16D\	.	.	.	.
16A\JJ)	16cc#X/Jk	.	16cc#X/Jk)	.
=6	=6	=6	=6	=6
(>16F\ 16D\LL	4dd\ 4a\	.	(>4dd\	-lu
16A\	.	.	.	.
16F\ 16D\	.	.	.	.
16A\	.	.	.	.
16F\ 16D\	8ff\	.	8ff\)	.
16A\JJ)	.	.	.	.
!!LO:LB:g=original
=7	=7	=7	=7	=7
(>16G\ 16D\LL	16ee\|LL	.	16ee\	gos-
16A\	16ee\|JJ	.	16ee\	-po-
16G\ 16D\	(>16cc#X\LL	.	(>16cc#X\LL	-da-
16A\	16a\JJ)	.	16a\JJ)	.
16G\ 16D\	8cc#\	.	8cc#\	-zo-
16A\JJ)	.	.	.	.
=8	=8	=8	=8	=8
(>16F\ 16D\LL	4.dd\ 4.a\	.	4.dd\	-wi,
16A\	.	.	.	.
16F\ 16D\	.	.	.	.
16A\	.	.	.	.
16F\ 16D\	.	.	.	.
16A\JJ)	.	.	.	.
=9	=9	=9	=9	=9
(>16F\ 16D\LL	16dd/LL 16d/|	<	16dd\	sie-
16A\	16ee/JJ 16e/|	.	16ee\	-ckiem
16F\ 16D\	8ff/L 8f/|	[	8ff\	ze-
16A\	.	.	.	.
16F\ 16D\	8ff/J 8f/|	.	8ff\	-zał,
16A\JJ)	.	.	.	.
!!LO:LB:g=original
=10	=10	=10	=10	=10
(>16F\ 16D\LL	16ff/LL 16f/|	.	16ff\	nie
16A\	16ee/JJ 16e/|	.	16ee\	wie-
16F\ 16D\	8dd/L 8d/|	.	8dd\	-ce-
16A\	.	.	.	.
16F\ 16D\	8ff/J 8f/|	.	8ff\	-zał
16A\JJ)	.	.	.	.
=11	=11	=11	=11	=11
(>16G\ 16D\LL	16ee/LL 16e/^	.	16ee\	nie-
16A\	16ee/JJ 16e/	.	16ee\	-chaj
!	!LO:SIC:v:n=2:s=16c#X/^	!	!	!
16G\ 16D\	(16cc#X/LL 16d#X/^	.	(>16cc#X\LL	sam
16A\	16a/J)	.	16a\JJ)	.
16G\ 16D\	8cc#/J 8c#y/	.	8cc#\	po-
16A\JJ)	.	.	.	.
=12	=12	=12	=12	=12
(>16F\ 16D\LL	4.dd/ 4.d/^	.	4.dd\	-wie
16A\	.	.	.	.
16F\ 16D\	.	.	.	.
16A\	.	.	.	.
16F\ 16D\	.	.	.	.
16A\JJ)	.	.	.	.
!!LO:PB:g=original
=13	=13	=13	=13	=13
(>16G\ 16D\LL	8ee/ 8e/|	.	8ee\	ma-
16A\	.	.	.	.
16G\ 16D\	8.a/^L	.	(<8.a/L	-tu-
16A\	.	.	.	.
16G\ 16D\	.	.	.	.
16A\JJ)	16cc#X/Jk	.	16cc#X/Jk)	.
=14	=14	=14	=14	=14
(>16F\ 16D\LL	4dd/ 4d/	.	(>4dd\	-lu,
16A\	.	.	.	.
16F\ 16D\	.	.	.	.
16A\	.	.	.	.
16F\ 16D\	8ff/ 8f/	.	8ff\)	.
16A\JJ)	.	.	.	.
=15	=15	=15	=15	=15
(>16G\ 16D\LL	16ee/LL 16e/	.	16ee\	nie-
16A\	16ee/JJ 16e/	.	16ee\	-chaj
16G\ 16D\	(16cc#X/LL 16e/	.	(>16cc#X\LL	sam
16A\	16a/J)	.	16a\JJ)	.
16G\ 16D\	8cc#/J 8e/	.	8cc#\	po-
16A\JJ)	.	.	.	.
!!LO:LB:g=original
=16	=16	=16	=16	=16
(>16F\ 16D\LL	4dd/ 4d/	.	4dd\	-wié,
16A\	.	.	.	.
16F\ 16D\	.	.	.	.
16A\	.	.	.	.
16F\ 16D\	8r	.	8r	.
16A\JJ)	.	.	.	.
=17	=17	=17	=17	=17
(<16AA/ 16DD/LL	16ff\LL 16f\|	.	16ff\	ni
16D/	16gg#X\JJ 16g#X\|	.	16gg#X\	ja
16AA/ 16DD/	8aa\L 8a\|	.	8aa\	ja-
16D/	.	.	.	.
16AA/ 16DD/	8aa\J 8a\|	.	8aa\	-dać,
16D/JJ)	.	.	.	.
=18	=18	=18	=18	=18
(<16AA/ 16DD/LL	16aa\LL 16a\|	.	16aa\	ni
16D/	16ggn\JJ 16gn\|	.	16ggn\	ja
16AA/ 16DD/	8ff\L 8f\|	.	8ff\	pi-
16D/	.	.	.	.
16AA/ 16DD/	8ee\J 8e\|	.	8ee\	-jać,
16D/JJ)	.	.	.	.
!!LO:LB:g=original
=19	=19	=19	=19	=19
(<16AA/ 16DD/LL	16ff\LL 16f\	.	16ff\	ni
16D/	16ff\JJ 16f\	.	16ff\	ja
16AA/ 16DD/	8gg#XL\ 8g#X\	.	8gg#X\	wys-
16D/	.	.	.	.
16AA/ 16DD/	8gg#\J 8g#\	.	8gg#\	-pa-
16D/JJ)	.	.	.	.
=20	=20	=20	=20	=20
(<16AA/ 16DD/LL	4.aa\ 4.a\	.	4.aa\	-nia,
16D/	.	.	.	.
16AA/ 16DD/	.	.	.	.
16D/	.	.	.	.
16AA/ 16DD/	.	.	.	.
16D/JJ)	.	.	.	.
=21	=21	=21	=21	=21
(<16AA/ 16DD/LL	8ffn/ 8fn/|	.	8ffn\|	ma-
16D/	.	.	.	.
16AA/ 16DD/	8.gg#X/L 8.g#X/^	.	(8.gg#X\L	-tu-
16D/	.	.	.	.
16AA/ 16DD/	.	.	.	.
16D/JJ)	16ff/Jk 16f/|	.	16ff\Jk)	.
!!LO:LB:g=original
=22	=22	=22	=22	=22
(<16AA/ 16DD/LL	4.aa\ 4.a\	.	4.aa\	-lu,
16D\	.	.	.	.
16AA/ 16DD/	.	.	.	.
16D\	.	.	.	.
16AA/ 16DD/	.	.	.	.
16D\JJ)	.	.	.	.
=23	=23	=23	=23	=23
(<16AA/ 16GG/ 16DD/LL	16ee/LL 16e/	.	16ee\	ni
16D/	16ee/JJ 16e/	.	16ee\	ja
16AA/ 16GG/ 16DD/	16cc#X/LL 16c#X/	.	(>16cc#X\LL	wys-
16D/	16a/J	.	16a\JJ)	.
16AA/ 16GG/ 16DD/	8cc#/J 8c#/	.	8cc#\	-pa-
16D/JJ)	.	.	.	.
=24	=24	=24	=24	=24
(<16AA/ 16FF/ 16DD/LL	4dd/ 4d/	.	4dd\	-nia.
16D/	.	.	.	.
16AA/ 16FF/ 16DD/	.	.	.	.
16D/	.	.	.	.
16AA/ 16FF/ 16DD/	8r	.	8r	.
16D/JJ)	.	.	.	.
*Xtremolo	*	*	*	*
==	==	==	==	==
*-	*-	*-	*-	*-
!!!system-decoration: <s1>{(s2,s3)}
!!!RDF**kern: > = above
!!!RDF**kern: < = below
!!!RDF**kern: | = vertical stroke
!!!ENC: Andrzej Kubiczek
!!!END: 2021-11-11
!!!YEC: Copyright 2022 Narodowy Instytut Fryderyka Chopina (https://polishscores.org)
!!!YEM: License CC-BY-4.0 (https://creativecommons.org/licenses/by/4.0)
